!!!!SEGMENT: pl-kk--kk-i-636--002-006_anonim--in-parasceve-responsorium-3tium.krn
!!!cenid: 18xx:4540
!!!COM: Anonim
!!!COM-rismID: pe30004985
!!!CDT:
!!!CNT:
!!!OPR: In Parasceve
!!!OTL: Responsorium 3tium
!!!OMV: 006
!!!PDT:
!!!AGN: Sacred
!!!YEC: Copyright 2022 Narodowy Instytut Fryderyka Chopina (https://polishscores.org)
!!!YEM: License CC-BY-4.0 (https://creativecommons.org/licenses/by/4.0)
!!!SMS-siglum: PL-Kk
!!!SMS-shelfmark: Kk.I.636
!!!SMS-variant:
!!!SMS-altvar:
!!!SMS-shelfwork: 002-006 M
!!!NIFC-rismSourceID: 1001216440
!!!NIFC-rismChildID: 1001216918
!!!NIFC-islandoraID: pl-kk:40786
!!!URL-pdf-islandora: https://repozytorium.nifc.pl/islandora/object/pl-kk%3A40786/datastream/PDF/view
!!!URL-scan: https://polish.musicsources.pl/pl/lokalizacje/galeria/rekopisy/7271/1 @EN{Scan on Polish Music Sources Website} @PL{Skany w portalu Dziedzictwo Muzyki Polskiej w otwartym dostępie}
!!!IIIF:
!!!ONB-nifc: UWAGA: Lamentacje i Responsoria In Parasceve na skanach: S – 8-14, A – 31-37,T – 53-60, B – 78-86. Każda Lamentacja i Responsorium to oddzielne pliki.
!!!AIN: 1 alto 1 bass 1 soprn 1 tenor
!!!key: b
**kern	**text	**kern	**text	**kern	**text	**kern	**text
*part4	*part4	*part3	*part3	*part2	*part2	*part1	*part1
*staff4	*staff4	*staff3	*staff3	*staff2	*staff2	*staff1	*staff1
*ICvox	*	*ICvox	*	*ICvox	*	*ICvox	*
*Ibass	*	*Itenor	*	*Ialto	*	*Isoprn	*
*I"Basso.	*	*I"Tenore.	*	*I"Alto.	*	*I"Soprano.	*
*I'B	*	*I'T	*	*I'A	*	*I'S	*
*clefF4	*	*clefC4	*	*clefC3	*	*clefC1	*
*k[f#c#]	*	*k[f#c#]	*	*k[f#c#]	*	*k[f#c#]	*
*b:	*	*b:	*	*b:	*	*b:	*
*M4/4	*	*M4/4	*	*M4/4	*	*M4/4	*
*met(c)	*	*met(c)	*	*met(c)	*	*met(c)	*
*all\right	*	*all\right	*	*all\right	*	*all\right	*
=1	=1	=1	=1	=1	=1	=1	=1
*2\right	*	*2\right	*	*2\right	*	*2\right	*
!!LO:TX:t=P:problem:all\right
2B\	Vi-	2d\	Vi-	2f#\	Vi-	2dd\	Vi-
4B\	-ne-	4d\	-ne-	4f#\	-ne-	4dd\	-ne-
4B\	-a	4d\	-a	4f#\	-a	4dd\	-a
=2	=2	=2	=2	=2	=2	=2	=2
2A#X\	me-	2c#\	me-	2g\	me-	2ee\	me-
4A#\	-a	4c#\	-a	4g\	-a	4ee\	-a
4A#\	e-	8B\L	e-	4g\	e-	4ee\	e-
.	.	8A#X\J	.	.	.	.	.
!LO:LB:g=original	!	!LO:LB:g=original	!	!LO:LB:g=original	!	!LO:LB:g=original	!
=3	=3	=3	=3	=3	=3	=3	=3
1An	-le-	1B	-le-	1f#	-le-	1dd#X	-le-
=4	=4	=4	=4	=4	=4	=4	=4
4G\	cta,	4B\	-cta,	4e\	-cta,	4ee\	-cta,
4.G\	e-	2e\	e-	4.e\	e-	2b\	e-
8F#\	.	.	.	8f#\	.	.	.
4E\	-go	4e\	-go	4g\	-go	4cc#\	-go
=5	=5	=5	=5	=5	=5	=5	=5
4F#\	te	4c#\	te	4f#\	te	8a#X\	te
.	.	.	.	.	.	8f#/	plan-
4D\	plan-	4d\	plan-	4f#\	plan-	2b\	-ta-
4C#/	-ta-	2e\	-ta-	4g\	-ta-	.	.
4C#/	.	.	.	8f#\L	.	4a#\	.
.	.	.	.	8e\J	.	.	.
=6	=6	=6	=6	=6	=6	=6	=6
4BB/	-vi,	2d\	-vi,	4f#\	-vi,	4b\	-vi,
4.B\	quo-	.	.	4.f#\	quo-	4.dd\	quo-
.	.	4.B\	quo-	.	.	.	.
8A\	-mo-	.	.	8f#\	-mo-	8dd\	-mo-
[4G\	-do	.	.	[4g\	-do	[4ee\	-do
.	.	8B\	-mo-	.	.	.	.
!LO:LB:g=original	!	!	!	!LO:LB:g=original	!	!LO:LB:g=original	!
=7	=7	=7	=7	=7	=7	=7	=7
4G\]	.	4B\	-do	4g\]	.	4ee\]	,
4F#\	con-	4B\	con-	4a\	con-	4dd#X\	con-
4E\	-ver-	4B\	-ver-	4g\	-ver-	4ee\	-ver-
4E\	-sa	4B\	-sa	4g\	-sa	4ee\	-sa
!	!	!LO:LB:g=original	!	!	!	!	!
=8	=8	=8	=8	=8	=8	=8	=8
4BB/	es	4B\	es	4f#\	est	4dd#X\	es
2B\	in	2B\	in	2f#\	in	2dd#\	in
4B\	a-	4d#X\	a-	4f#\	a-	4dd#\	a-
=9	=9	=9	=9	=9	=9	=9	=9
2cn\	-ma-	2f#\	-ma-	2a\	-ma-	2dd#X\	-ma-
2c\	-ri-	2f#\	-ri-	2a\	-ri-	2dd#\	-ri-
=10	=10	=10	=10	=10	=10	=10	=10
4c#\	-tu-	4.e\	-tu-	4a\	-tu-	4.ee\	-tu-
8B\L	-di-	.	.	8g\L	-di-	.	.
8A\J	.	16d\LL	-di-	8f#\J	.	8ee\	-di-
.	.	16cn\JJ	.	.	.	.	.
4B\	-nem,	4B\	-nem,	4g\	-ne,	4ee\	-nem,
4B\	ut	4B\	ut	4e\	ut	4ee\	ut
!LO:LB:g=original	!	!	!	!LO:LB:g=original	!	!LO:LB:g=original	!
=11	=11	=11	=11	=11	=11	=11	=11
4G#X\	me	2B\	me	2e\	me	4ddn\	me
2G#\	cru-	.	.	.	.	2dd\	cru-
.	.	4B\	cru-	4e\	cru-	.	.
4G#\	-ci-	4B\	-ci-	4e\	-ci-	4dd\	-ci-
=12	=12	=12	=12	=12	=12	=12	=12
4.A\	-fi-	4.c#\	-fi-	4.e\	-fi-	4.cc#\	-fi-
8A\	-ge-	8c#\	-ge-	8e\	-ge-	8cc#\	-ge-
2A\	-res,	2c#\	-res,	2e\	-res	2cc#\	-res
!	!	!LO:LB:g=original	!	!	!	!	!
=13	=13	=13	=13	=13	=13	=13	=13
4F#\	et	4A\	et	4d\	et	4ccn\	et
4F#\	Bar-	4A\	Bar-	4d\	Bar-	4cc\	Bar-
2F#\	-ra-	2A\	-ra-	2d\	-ra-	2cc\	-ra-
=14	=14	=14	=14	=14	=14	=14	=14
4G\	-bam	4B\	-bam,	4d\	-bam	4b\	-bam,
4G\	Bar-	4d\	Bar-	4g\	Bar-	4b\	Bar-
2E\	-ra-	[2e\	-ra-	2g\	-ra-	2cc#X\	-ra-
!LO:LB:g=original	!	!	!	!LO:LB:g=original	!	!LO:LB:g=original	!
=15	=15	=15	=15	=15	=15	=15	=15
4F#\	-bam	4e\]	.	4c#\	-bam,	4a#X\	-bam
4BB/	di-	8d\	-bam	8d\L	di-	4b\	di-
.	.	8d\	di-	8e\J	.	.	.
4.F#\	-mit-	4.c#\	-mit-	4.f#\	-mit-	4b\	-mit-
.	.	.	.	.	.	4a#\	-te-
8F#\	-te-	8c#\	-te-	8f#\	-te-	.	.
=16	=16	=16	=16	=16	=16	=16	=16
4BB/	-res,	4d\	-res,	4f#\	-res,	2b\	-res,
2B\	et	2d\	et	2f#\	et	.	.
.	.	.	.	.	.	4b\	et
4A\	Bar-	4d#X\	Bar-	4f#\	Bar-	4b\	Bar-
!	!	!LO:LB:g=original	!	!	!	!	!
=17	=17	=17	=17	=17	=17	=17	=17
2G\	-ra-	4e\	-ra-	4e\	-ra-	2b\	-ra-
.	.	4B\	.	2e\	-bam	.	.
[2F#\	-bam	4cn\	-bam	.	.	[2a\	-bam
.	.	4B\	di-	4d#X\	di-	.	.
=18	=18	=18	=18	=18	=18	=18	=18
4F#\]	.	2.B\	-mit-	1e	-mit-	4a\]	.
8E\L	di-	.	.	.	.	8g/L	di-
8D#X\J	.	.	.	.	.	8f#/J	.
4.E\	-mit-	.	.	.	.	[2g\	-mit-
.	.	4B\	-te-	.	.	.	.
8E\	-te-	.	.	.	.	.	.
!LO:LB:g=original	!	!	!	!LO:LB:g=original	!	!LO:LB:g=original	!
=19	=19	=19	=19	=19	=19	=19	=19
1BB	-res	1B	-res	4e\	.	4g\]	.
.	.	.	.	8d#X\L	.	8f#/L	.
.	.	.	.	8c#\J	.	8e/J	.
.	.	.	.	2d#\	-te-	2f#/	-te-
=20	=20	=20	=20	=20	=20	=20	=20
1BB	-.	1B	-.	1d#X;	-res.	1f#	-res:
=21||	=21||	=21||	=21||	=21||	=21||	=21||	=21||
*M4/4	*	*M4/4	*	*M4/4	*	*M4/4	*
*met(c)	*	*met(c)	*	*met(c)	*	*met(c)	*
!LO:TX:a:t=2.:mod=	!	!LO:TX:a:t=2.:mod=	!	!LO:TX:a:rj:t=Solo.	!	!LO:TX:a:t=Solo.	!
0r	.	0r	.	4dn\	se-	2r	.
.	.	.	.	8f#\	-pi-	.	.
.	.	.	.	8d\	-vi	.	.
.	.	.	.	4a\	te	4a\	se-
.	.	.	.	4r	.	8cc#\	-pi-
.	.	.	.	.	.	16b\LL	-vi
.	.	.	.	.	.	16a\JJ	.
=22	=22	=22	=22	=22	=22	=22	=22
.	.	.	.	8r	.	4dd\	te
.	.	.	.	8d\	et	.	.
.	.	.	.	4.b\	la-	8r	.
.	.	.	.	.	.	8b\	et
!	!	!	!	!	!	!LO:LB:g=original	!
.	.	.	.	.	.	8.ee\	la-
.	.	.	.	16a#X\LL	-pi-	.	.
.	.	.	.	16g#X\JJ	.	16ee\	-pi-
.	.	.	.	8a#\	-des	8ee\	-des
.	.	.	.	8a#\	e-	16dd\LL	e-
.	.	.	.	.	.	16cc#\JJ	.
!	!	!	!	!LO:LB:g=original	!	!	!
=23	=23	=23	=23	=23	=23	=23	=23
!LO:TX:a:t=Solo.	!	!LO:TX:a:rj:t=Solo.	!	!	!	!	!
2r	.	4B\	se-	8b\	-le-	16.dd\LL	-le-
.	.	.	.	.	.	32cc#\JJk	.
.	.	.	.	8f#\	-gi,	8b\	-gi,
.	.	8d\	-pi-	4r	.	4r	.
.	.	8B\	-vi-	.	.	.	.
4F#\	Se-	4f#\	-te,	2r	.	2r	.
8A#X\	-pi-	4r	.	.	.	.	.
16G#X\LL	-vi	.	.	.	.	.	.
16F#\JJ	.	.	.	.	.	.	.
!	!	!LO:LB:g=original	!	!	!	!	!
=24	=24	=24	=24	=24	=24	=24	=24
!	!	!	!	!LO:TX:a:t=3.:mod=	!	!LO:TX:a:t=3:mod=	!
4B\	te,	8r	.	0r	.	0r	.
.	.	8B\	et	.	.	.	.
8r	.	4.g\	la-	.	.	.	.
8B\	et	.	.	.	.	.	.
8An\	la-	.	.	.	.	.	.
8A\	-pi-	16f#\LL	-pi-	.	.	.	.
.	.	16e\JJ	.	.	.	.	.
!LO:LB:g=original	!	!	!	!	!	!	!
8A\	-des	8f#\	-des	.	.	.	.
16G\LL	e-	8f#\	e-	.	.	.	.
16F#\JJ	.	.	.	.	.	.	.
=25	=25	=25	=25	=25	=25	=25	=25
2G\	-le-	8f#\L	-le-	.	.	.	.
.	.	16e\L	.	.	.	.	.
.	.	16d\JJ	.	.	.	.	.
.	.	4e\	.	.	.	.	.
8F#\	-gi,	4d\	-gi	.	.	.	.
8F#\	e-	.	.	.	.	.	.
[4B\	-le-	8r	.	.	.	.	.
.	.	8B\	e-	.	.	.	.
=26	=26	=26	=26	=26	=26	=26	=26
8B\L]	.	4.e\	-le-	1r	.	1r	.
16A\L	.	.	.	.	.	.	.
16G#X\JJ	.	.	.	.	.	.	.
4.A\	.	.	.	.	.	.	.
.	.	16d\LL	.	.	.	.	.
.	.	16c#\JJ	.	.	.	.	.
.	.	4d\	.	.	.	.	.
8F#\	.	.	.	.	.	.	.
8G#X\	-gi	8d\	-gi	.	.	.	.
8G#\	ex	8d\	ex	.	.	.	.
!	!	!LO:LB:g=original	!	!	!	!	!
=27	=27	=27	=27	=27	=27	=27	=27
4A\	te,	4c#\	te	2r	.	4a\	se-
4r	.	4r	.	.	.	8cc#\	-pi-
.	.	.	.	.	.	8a\	-vi
2r	.	2r	.	4e\	se-	4ee\	te
.	.	.	.	8g#X\	-pi-	4r	.
.	.	.	.	16f#\LL	-vi	.	.
.	.	.	.	16e\JJ	.	.	.
!LO:PB:g=original	!	!	!	!	!	!LO:LB:g=original	!
=28	=28	=28	=28	=28	=28	=28	=28
!	!	!	!	!	!	!LO:TX:a:t=1:mod=	!
2r	.	4A\	se-	4a\	te	1r	.
.	.	8c#\	-pi-	4r	.	.	.
.	.	16B\LL	-vi-	.	.	.	.
.	.	16A\JJ	.	.	.	.	.
4D\	se-	4d\	-te	2r	.	.	.
8F#\	-pi-	8r	.	.	.	.	.
8D\	-vi	8f#\	et	.	.	.	.
=29	=29	=29	=29	=29	=29	=29	=29
4A\	te	8e\	la-	4r	.	8r	.
.	.	16c#\LL	-pi-	.	.	8cc#\	et
.	.	16B\JJ	.	.	.	.	.
8r	.	8c#\	-des	8r	.	4.ff#\	la-
8A\	et	8c#\	e-	8f#\	et	.	.
!	!	!	!	!LO:TX:t=P:problem:brak początku ligatury	!	!	!
8.G\	la-	8d\	-le-	[2b\	la-	.	.
.	.	8B\	-gi	.	.	16ee\LL	-pi-
16G\	-pi-	.	.	.	.	16dd\JJ	.
8G\	-des	8r	.	.	.	8ee\	-des
8G\	e-	8G/	e-	.	.	8dd\	e-
!	!	!LO:LB:g=original	!	!LO:LB:g=original	!	!	!
=30	=30	=30	=30	=30	=30	=30	=30
4G\	-le-	2A\	-le-	8b\]	.	(4cc#\	-le-
.	.	.	.	16a\LL	-pi-	.	.
.	.	.	.	16g\JJ	.	.	.
4F#\	.	.	.	8a\	-des	4.dd\	.
.	.	.	.	8f#\	e-	.	.
4E\	.	4B\	.	4gn\	-le-	.	.
.	.	.	.	.	.	16cc#\LL)	.
.	.	.	.	.	.	16b\JJ	.
8E\	gi	8G/	-gi	8g\	-gi	8cc#\	-gi
8E\	ex	8G/	ex	8g\	ex	8cc#\	ex
!LO:LB:g=original	!	!	!	!	!	!LO:LB:g=original	!
=31	=31	=31	=31	=31	=31	=31	=31
4D\	te,	4A\	te,	4f#\	te	4dd\	te,
4r	.	4r	.	4.f#\	et	4.dd\	et
2r	.	2r	.	.	.	.	.
.	.	.	.	16e\LL	e-	16cc#\LL	e-
.	.	.	.	16d\JJ	.	16b\JJ	.
.	.	.	.	8e\	-di-	8cc#\	-di-
.	.	.	.	8e\	-fi-	8cc#\	-fi-
!	!	!LO:TX:b:rj:t=Volti Subitto.	!	!	!	!	!
!	!	!LO:PB:g=original	!	!	!	!	!
=32	=32	=32	=32	=32	=32	=32	=32
4r	.	4r	.	8e\	-ca-	8cc#\	-ca-
.	.	.	.	8d\	-vi	8b\	-vi
4.B\	et	4.d\	et	4r	.	4r	.
.	.	.	.	2r	.	2r	.
16A\LL	e-	16cn\LL	e-	.	.	.	.
16G\JJ	.	16B\JJ	.	.	.	.	.
8A\	-di-	8c\	-di-	.	.	.	.
8A\	-fi-	8c\	-fi-	.	.	.	.
!	!	!	!	!LO:LB:g=original	!	!	!
=33	=33	=33	=33	=33	=33	=33	=33
8A\	-ca-	8cn\	-ca-	8r	.	8r	.
8G\	-vi	8B\	-vi	8d\	e-	8b\	e-
8r	.	8r	.	8g\	-di-	8b\	-di-
8G\	e-	8e\	e-	8g\	-fi-	8b\	-fi-
8A\	-di-	8c#X\	-di-	4g\	-ca-	4.a\	-ca-
8C#/	-fi-	16B\LL	-fi-	.	.	.	.
.	.	16A\JJ	.	.	.	.	.
8D/	-ca-	8d\	-ca-	8f#\L	-vi	.	.
8GG/	-vi	8B\	-vi	8g\J	.	8b\	-vi
!LO:LB:g=original	!	!	!	!	!	!LO:LB:g=original	!
=34	=34	=34	=34	=34	=34	=34	=34
2AA/	tur-	4d\	tur-	4f#\	tur-	2a\	tur-
.	.	4c#\	.	4e\	.	.	.
4D\	-rim.	4d\	-rim:	4d\	-rim.	4a\	-rim.
4r	.	4r	.	4r	.	4r	.
!	!	!	!	!	!	!LO:TX:b:rj:t=Volti Subitto&colon;	!
!	!	!LO:LB:g=original	!	!	!	!LO:PB:g=original	!
=35||	=35||	=35||	=35||	=35||	=35||	=35||	=35||
*M4/4	*	*M4/4	*	*M4/4	*	*M4/4	*
*met(c)	*	*met(c)	*	*met(c)	*	*met(c)	*
!LO:TX:a:rj:t=tutti.	!	!LO:TX:a:rj:t=tutti.	!	!	!	!LO:TX:a:rj:t=tutti.	!
4.B\	Quo-	4.d\	quo-	4.f#\	quo-	4.b\	Quo-
8B\	-mo-	8d\	-mo-	8f#\	-mo-	8b\	-mo-
4B\	-do	4d\	-do	4f#\	-do	4b\	-do
4B\	con-	4d\	con-	4f#\	con-	4b\	con-
=36	=36	=36	=36	=36	=36	=36	=36
2F#\	ver-	4.c#\	-ver-	2f#\	ver-	2a#X\	-ver-
.	.	8d\	.	.	.	.	.
2E\	-sa	4e\	-sa,	2g\	-sa	2b\	-sa
.	.	4e\	tu	.	.	.	.
!	!	!	!	!LO:LB:g=original	!	!	!
=37	=37	=37	=37	=37	=37	=37	=37
4BB/	es	4d\	es	4f#\	est	4b\	es
2B\	in	2B\	in	2f#\	in	2dd#X\	in
4B\	a-	4d#X\	a-	4f#\	a-	4dd#\	a-
!LO:LB:g=original	!	!	!	!	!	!	!
=38	=38	=38	=38	=38	=38	=38	=38
2cn\	-ma-	2f#\	-ma-	2a\	-ma-	2dd#X\	-ma-
2c\	-ri-	2f#\	-ri-	2a\	-ri-	2dd#X\	-ri-
!	!	!LO:LB:g=original	!	!	!	!LO:LB:g=original	!
=39	=39	=39	=39	=39	=39	=39	=39
4c#\	-tu-	4.e\	-tu-	4a\	-tu-	4.ee\	-tu-
8B\L	-di-	.	.	8g\L	-di-	.	.
8A\J	.	16d\LL	-di-	8f#\J	.	8ee\	-di-
.	.	16cn\JJ	.	.	.	.	.
4B\	-nem,	4B\	-nem,	4g\	-ne,	4ee\	-nem,
4B\	ut	4B\	ut	4e\	ut	4ee\	ut
=40	=40	=40	=40	=40	=40	=40	=40
4G#X\	me	2B\	me	2e\	me	4ddn\	me
2G#\	cru-	.	.	.	.	2dd\	cru-
.	.	4B\	cru-	4e\	cru-	.	.
4G#\	-ci-	4B\	-ci-	4e\	-ci-	4dd\	-ci-
=41	=41	=41	=41	=41	=41	=41	=41
4.A\	-fi-	4.c#\	-fi-	4.e\	-fi-	4.cc#\	-fi-
8A\	-ge-	8c#\	-ge-	8e\	-ge-	8cc#\	-ge-
2A\	-res,	2c#\	-res,	2e\	-res,	2cc#\	-res
!LO:LB:g=original	!	!	!	!LO:LB:g=original	!	!	!
=42	=42	=42	=42	=42	=42	=42	=42
4F#\	et	4A\	et	4d\	et	4ccn\	et
4F#\	Bar-	4A\	Bar-	4d\	Bar-	4cc\	Bar-
2F#\	-ra-	2A\	-ra-	2d\	-ra-	2cc\	-ra-
!	!	!	!	!	!	!LO:LB:g=original	!
=43	=43	=43	=43	=43	=43	=43	=43
4G\	-bam	4B\	-bam,	4d\	-bam,	4b\	-bam
4G\	Bar-	4d\	Bar-	4g\	Bar-	4b\	Bar-
2E\	-ra-	[2e\	-ra-	2g\	-ra-	2cc#X\	-ra-
!	!	!LO:LB:g=original	!	!	!	!	!
=44	=44	=44	=44	=44	=44	=44	=44
4F#\	-bam	4e\]	.	4c#\	-bam	4a#X\	-bam
4BB/	di-	8d\	-bam	8d\L	di-	4b\	di-
.	.	8d\	di-	8e\J	.	.	.
4.F#\	-mit-	4.c#\	-mit-	4.f#\	-mit-	4b\	-mit-
.	.	.	.	.	.	4a#\	-te-
8F#\	-te-	8c#\	-te-	8f#\	-te-	.	.
=45	=45	=45	=45	=45	=45	=45	=45
4BB/	-res,	4d\	-res,	4f#\	-re,	2b\	-res,
2B\	et	2d\	et	2f#\	et	.	.
.	.	.	.	.	.	4b\	et
4A\	Bar-	4d#X\	Bar-	4f#\	Bar-	4b\	Bar-
!LO:LB:g=original	!	!	!	!	!	!	!
=46	=46	=46	=46	=46	=46	=46	=46
2G\	-ra-	4e\	-ra-	4e\	-ra-	2b\	-ra-
.	.	4B\	.	2e\	-bam	.	.
[2F#\	-bam	4cn\	-bam	.	.	[2a\	-bam
.	.	4B\	di-	4d#X\	di-	.	.
!	!	!LO:LB:g=original	!	!LO:LB:g=original	!	!LO:LB:g=original	!
=47	=47	=47	=47	=47	=47	=47	=47
4F#\]	.	2.B\	-mit-	[1e	-mit-	4a\]	.
8E\L	di-	.	.	.	.	8g/L	di-
8D#X\J	.	.	.	.	.	8f#/J	.
4.E\	-mit-	.	.	.	.	[2g\	-mit-
.	.	4B\	-te-	.	.	.	.
8E\	-te-	.	.	.	.	.	.
=48	=48	=48	=48	=48	=48	=48	=48
1BB	-res	1B	-res	4e\]	.	4g\]	.
.	.	.	.	8d#X\L	.	8f#/L	.
.	.	.	.	8c#\J	.	8e/J	.
.	.	.	.	2d#\	-te-	2f#/	-te-
=49	=49	=49	=49	=49	=49	=49	=49
1BB	-.	1B	-.	1d#X	-res.	1f#	-res.
!	!	!	!	!LO:TX:b:rj:t=Seq Responsorium 4m.	!	!	!
==	==	==	==	==	==	==	==
*-	*-	*-	*-	*-	*-	*-	*-
!!!system-decoration: [(s1,s2,s3,s4)]
!!!RDF**kern: > = above
!!!RDF**kern: < = below
!!!RDF**kern: i = editorial accidental
!!!ENC: Filip Voros
!!!EED: Katarzyna Serwa
!!!END: 2023-11-17
!!!EEV: 2024-06-04
